X: 41283
T: Tullochgorum
R: strathspey
M: 4/4
K: Cmajor
c|B<Gd>G c>FA>c|B<Gd>G B>cd<g|B<Gd>G c>FA>c|B<Gd>G c BA:|
B|G>gd>e f>FA2|G>gd<g B<gd<g|G<gd>e f>FA>B|G>gd>g A/B/c B>A|
G<gd>e f>FA>B|G<gd>e f>ga>f|a/g/f/e/ f>d c>FA>a|g>d g/a/b e<g d<g||

